X:9
T:The Colonel and the Missus
R:jig
C:Paul S. Cranford
O:Cape Breton Island
S:http://www.cranfordpub.com
D:currently unrecorded
B:currently unpublished in book form
Z:psc
H:                                                        copyrights Cranford Publications, SOCAN
L:1/8
Q:300
M:6/8
K:A
EFE EFA|cBA B2 c|AFE F2 E|CB,A, B,2 C|
A,AE FAB|cBA B2 c| AFE Fed|[1cAA A2 z:|[2cAA A2:|
|:E|ecA dba|gec dBB|ecc dBB|cAA BGE|
[1ecA dba|gec dBB|ecA Fed|cAA A2:|
[2CEC DBA|GFG A2 E|ecA Fed| cAA A2 z|]
